packages/astro-components-stencil/src/icons/subdirectory-arrow-left.svg

<svg xmlns="http://www.w3.org/2000/svg" viewBox="0 0 24 24"><g xmlns="http://www.w3.org/2000/svg" id="subdirectory-arrow-left" fill-rule="nonzero">
            <path d="M5.71 15.71l4.58 4.58c.39.39 1.03.39 1.42 0 .39-.39.39-1.03 0-1.42L8.83 16H19c.55 0 1-.45 1-1V5c0-.55-.45-1-1-1s-1 .45-1 1v9H8.83l2.88-2.87c.39-.39.39-1.03 0-1.42-.39-.39-1.03-.39-1.42 0l-4.58 4.58c-.39.39-.39 1.03 0 1.42z"/>
        </g></svg>

<svg width="24" height="24" viewBox="0 0 24 24" fill="none" xmlns="http://www.w3.org/2000/svg">
<path d="M5.70998 15.71L10.29 20.29C10.68 20.68 11.32 20.68 11.71 20.29C12.1 19.9 12.1 19.26 11.71 18.87L8.82998 16H19C19.55 16 20 15.55 20 15V5C20 4.45 19.55 4 19 4C18.45 4 18 4.45 18 5V14H8.82998L11.71 11.13C12.1 10.74 12.1 10.1 11.71 9.71C11.32 9.32 10.68 9.32 10.29 9.71L5.70998 14.29C5.31998 14.68 5.31998 15.32 5.70998 15.71Z" fill="black"/>
</svg>
